packages/astro-components-stencil/src/icons/assignment.svg

<svg xmlns="http://www.w3.org/2000/svg" viewBox="0 0 24 24"><g xmlns="http://www.w3.org/2000/svg" id="assignment" fill-rule="nonzero">
            <path d="M19 3h-4.18C14.4 1.84 13.3 1 12 1c-1.3 0-2.4.84-2.82 2H5c-1.1 0-2 .9-2 2v14c0 1.1.9 2 2 2h14c1.1 0 2-.9 2-2V5c0-1.1-.9-2-2-2zm-7 0c.55 0 1 .45 1 1s-.45 1-1 1-1-.45-1-1 .45-1 1-1zm1 14H8c-.55 0-1-.45-1-1s.45-1 1-1h5c.55 0 1 .45 1 1s-.45 1-1 1zm3-4H8c-.55 0-1-.45-1-1s.45-1 1-1h8c.55 0 1 .45 1 1s-.45 1-1 1zm0-4H8c-.55 0-1-.45-1-1s.45-1 1-1h8c.55 0 1 .45 1 1s-.45 1-1 1z"/>
        </g></svg>

<svg width="24" height="24" viewBox="0 0 24 24" fill="none" xmlns="http://www.w3.org/2000/svg">
<path fill-rule="evenodd" clip-rule="evenodd" d="M19 3H14.82C14.4 1.84 13.3 1 12 1C10.7 1 9.6 1.84 9.18 3H5C3.9 3 3 3.9 3 5V19C3 20.1 3.9 21 5 21H19C20.1 21 21 20.1 21 19V5C21 3.9 20.1 3 19 3ZM12 3C12.55 3 13 3.45 13 4C13 4.55 12.55 5 12 5C11.45 5 11 4.55 11 4C11 3.45 11.45 3 12 3ZM8 17H13C13.55 17 14 16.55 14 16C14 15.45 13.55 15 13 15H8C7.45 15 7 15.45 7 16C7 16.55 7.45 17 8 17ZM16 13H8C7.45 13 7 12.55 7 12C7 11.45 7.45 11 8 11H16C16.55 11 17 11.45 17 12C17 12.55 16.55 13 16 13ZM8 9H16C16.55 9 17 8.55 17 8C17 7.45 16.55 7 16 7H8C7.45 7 7 7.45 7 8C7 8.55 7.45 9 8 9Z" fill="black"/>
</svg>
